X: 5
T: Kitty Goes A-Milking
R: reel
M: 4/4
L: 1/8
K: Gmaj
|Bc| dG G2 d2 cA | dG G2 FGAc | dG G2 d2 (3efg | fdcA G2 Bc |
dG G2 d2 cA | dG G2 FGAc | dG G2 d2 eg | fdcA GABc |
| dg g2 ag g2 | dggf d2 Bc | dg g2 ag g2 | dcAB c2 Bc |
dg g2 ag g2 | dggf d2 Bc | defg a3 g | fdcA G4 |


Tune 1647	Setting 22723

